X:1
T: Balgeddie's Hornpipe
C:
R:Reel
Q:232
K:D
M:4/4
L:1/16
A,2|:D8 E3D C3A,|D4F4 A4F4|G8 F3E D3C|B,4 E3D C4A,4|
D8 E3D C3A,|D4F4 A4F4|G3B A3G F4D4|1C3D E3C D6A,2:|2C3D E3C D4 F3G|
|:A4 d3c d4A4|c3d e3c d4A4|B3A B3c d3A F3D|E3F G3A B4c4|d4A4 d4A4|
|1c3d e3c d4A4|B3c d3B A4d4|c3d e3c d4F3G:|2f3g a3f g4b4|f3g a3f g4b4|c3d e3c d4||
